**kern
*I"钢琴, MIDI
*clefG2
*k[]
*M4/4
*MM94
=1
2r
4r
8eL
8gJ
=2
4g
8eL
8gJ
8gL
8f
8e
8dJ
=3
8dL
8c
8d
8e'J
4e
8r
8e
=4
8fL
8e
8d
8cJ
8cL
8G
8G
8eJ
=5
8fL
8e
8c
8eJ
4d
8eL
8gJ
=6
4g
8eL
8gJ
8gL
8e
8d
8eJ
=7
8dL
8c
8d
8e'J
4e
8r
8e
=8
8fL
8e
8d
8cJ
4d
4d
=9
2c
8r
16r
16G
12eL
24dK
12c
24BJk
=10
4c
4a
8gL
8c
8c
8cJ
=11
8fL
8g
8a
[8gJ
4g]
8r
8c
=12
8fL
8g
8a
8gJ
8r
8g
12eL
24dK
8cJ
=13
8dL
8c
8d
8eJ
8.d'L
16GJk
12eL
24dK
12c
24BJk
=14
4c
4a
8gL
8c
8c
8cJ
=15
8fL
8g
8a
8gJ
4g
8r
8c
=16
8fL
8g
8a
8gJ
8r
8g
12eL
24dK
8cJ
=17
8fL
8e
8f
8gJ
8gL
8gJ
16gKL
8b
16cJk
=18
8cL
8d
8e
8fJ
8.eL
16dJk
8.d'L
16GJk
=19
8cL
8d
8e
8fJ
8.gL
16cJk
4c
=20
8cL
8d
8e
8fJ
8gL
16aL
16gJJ
8r
16eLL
16gJJ
*clefF4
=21
8fL
16eL
[16dJJ
8dL]
16cL
[16eJJ
8e]
16r
16c
12eL
24dK
12c
24BJk
=22
4c
4a
8.g'L
16cJk
12eL
24dK
12c
24BJk
=23
4c
8fL
8eJ
8.e'L
16cJk
12eL
24dK
12c
24BJk
*clefG2
=24
8.c'L
16GJk
12eL
24dK
12c
24BJk
8cL
8G
8G
8GJ
=25
8cL
8e
8d
8c'J
[2c
=26
2c]
4r
8r
[8G
=27
8GL]
8d
8c
8BJ
2d
=28
1r
=29
2r
8r
8GL
8d
8cJ
=30
8r
8GL
8d
8BJ
[2c
=31
2c]
2r
=32
1r
=33
1r
=34
1r
=35
1r
=36
1r
=37
2r
4r
8r
8G
=38
8fL
8e
8d
8c'J
4.c
8G
=39
8fL
8e
8d
8e'J
4.c
8G
=40
8eL
8eJ
8gL
12B
24cJk
8r
8c
16cKL
8d
[16eJk
=41
8eL]
16fL
[16eJJ
8eL]
8dJ
8cL
8d
8e
8fJ
=42
8.eL
16dJk
8.d'L
16GJk
8cL
8d
8e
8fJ
=43
8.gL
16cJk
4c
8cL
8d
8e
8fJ
=44
8gL
12a
24gJk
8r
12eL
24gJk
8fL
16eL
[16dJJ
8dL]
16gL
[16eJJ
=45
4e]
12eL
24dK
12c
24BJk
4c
4a
=46
8.g'L
16GJk
12eL
24dK
12c
24BJk
4c
8fL
8eJ
=47
8.e'L
16GJk
12eL
24dK
12c
24BJk
4c
12eL
24dK
12c
24dJk
=48
4c
8GL
8GJ
8cL
8eJ
8dL
16cL
[16cJJ
=49
1c]
=50
4r
8r
8c
8cL
16eL
[16dJJ
16dKL]
8c
[16eJk
=51
2.e_
8eL]
16dL
[16cJJ
=52
1c]
=53
1r
=54
2r
4r
8eL
8gJ
=55
4g
8eL
8gJ
8gL
8f
8e
8dJ
=56
8dL
8c
8d
8e'J
4e
8r
8e
=57
8fL
8e
8d
8cJ
8cL
8GJ
8r
8e
=58
8fL
8e
8c
8eJ
4d
8eL
8gJ
=59
4g
8eL
8gJ
8gL
8e
8d
8eJ
=60
8dL
16cL
[16dJJ
16dKL]
8g
[16gJk
16gKL]
8.eJ
8r
8e
=61
8fL
8e
8d
8cJ
4d
4d
=62
2c
2r
==
*-
